src/img/caret.svg

<svg width="8" height="4" viewBox="0 0 8 4" fill="none" xmlns="http://www.w3.org/2000/svg">
<path d="M1.00994 0.204566C1.26642 -0.057797 1.62349 -0.078386 1.93703 0.204566L4.23594 2.40876L6.53485 0.204566C6.84839 -0.078386 7.20605 -0.057797 7.46076 0.204566C7.71724 0.46634 7.70077 0.908709 7.46076 1.1546C7.22193 1.40049 4.6989 3.80293 4.6989 3.80293C4.57125 3.93412 4.40359 4 4.23594 4C4.06829 4 3.90063 3.93412 3.7718 3.80293C3.7718 3.80293 1.24995 1.40049 1.00994 1.1546C0.769341 0.908709 0.753458 0.46634 1.00994 0.204566Z" fill="#262626"/>
</svg>

<svg width="8" height="4" viewBox="0 0 8 4" xmlns="http://www.w3.org/2000/svg" fill="none"><path d="M1.01.205c.256-.262.614-.283.927 0l2.299 2.204 2.299-2.204c.314-.283.671-.262.926 0 .256.262.24.704 0 .95-.239.246-2.762 2.648-2.762 2.648-.128.131-.295.197-.463.197-.168 0-.335-.066-.464-.197 0 0-2.522-2.402-2.762-2.648-.241-.246-.256-.688 0-.95z" fill="#262626"/></svg>
